Yaru++/emotes/16/face-raspberry-wink.svg

<svg height="16" width="16" xmlns="http://www.w3.org/2000/svg"><path clip-rule="evenodd" d="m8 0c-4.4182857 0-8 3.5817143-8 8 0 4.418286 3.5817143 8 8 8 4.418286 0 8-3.581714 8-8 0-4.4182857-3.581714-8-8-8zm-5.7142857 9.2142857c1.1389257.7278857 4.5902857 1.0714283 5.7142857 1.0714283l.1792686.000343h.0000228c.5928343.0016 1.5627772.0041 2.5706516-.107417 1.117257-.123737 2.281143-.4109486 2.964343-.9642857v.5714286c0 .5046171-.861029 1.0503311-2.464229 1.3571881l.285714.607086c.318858.689486.0952 1.457829-.5 1.749943l-.285714.142857c-.595234.292114-1.3427427-.033486-1.6786284-.714286l-.7142857-1.464228c-.00826-.0168-.013429-.02651-.017691-.03451-.00584-.01097-.00997-.01886-.017954-.03692-.072514.0008-.1401142.000572-.2102171.000229h-.0000571-.0000686l-.1110857-.000229c-3.7209143 0-5.7142857-.998514-5.7142857-1.6070626zm1.7347543-5.9102171c.4028685-.5616343 1.1599771-1.0994972 2.2681257-1.1373029.1654514-.00487.3310286.0009029.4957371.01728l-.1036343 1.0735886c-1.0573828-.1004457-1.4948457.2743314-1.7821371.67504-.2883771.4007086-.3488686.8251771-.3488686.8251771l-1.07136-.1360914c.07784-.4748343.2632572-.9255771.5421372-1.3176914zm.8587085 3.5610057c0-1.2172457.3769143-2.1947086.8337829-2.1601486.4385029.033486.78632.9915086.78632 2.1601486 0 2.8762171-1.6201029 2.8762171-1.6201029 0zm4.9402058-1.5941943c.11232-.026949.2270061-.042857.3424001-.04752l.0011.00107c.805688-.03347 1.663174.4590329 2.358831 1.36629l-.856457.6588457c-.622171-.8122057-1.294971-.9979771-1.594183-.9266857-.1501254.0356343-.2333483.0971886-.301394.2538057-.072366.1555314-.108.4363429 0 .8543314l-1.0476343.2700229c-.1490514-.58648-.1371886-1.1200343.0572229-1.5617829.0954171-.21464.2388114-.4045371.4191314-.5550857.18032-.1505371.3927543-.2577257.6209829-.3132914z" fill="#fb7c38" fill-rule="evenodd" stroke-width="1.142857"/><path d="m8.2421875 10.96875h.0390625c.012.027.01325.0285.03125.0625l.625 1.28125c.147.2975.3829375.517109.6484375.630859s.5603125.121641.8203125-.0059l.25-.125c.2605-.128.440281-.359266.519531-.634766s.05747-.594484-.08203-.896484l-.111329-.236287-.173828-.294922c.01493.0041.0282.01306.04297.01758l-.007814-.01758c.0033-.000637.0045-.0013.0078-.002a2.9441256 2.4135832 0 0 0 -1.0312375-.160109 2.9441256 2.4135832 0 0 0 -1.578125.380859z" fill="#f22c42" stroke-width="1.23188" transform="matrix(1.1428571 0 0 1.1428571 -1.12821456223 -1.14274253608)"/><g stroke-width="1.142857"><path d="m8 0c-4.4182857 0-8 3.5817143-8 8 0 .0965885.01223029.1899542.01562503.2857143.15189348-4.2846369 3.66267767-7.71428573 7.98437497-7.71428573 4.321697 0 7.832481 3.42964883 7.984375 7.71428573.003395-.0957601.015625-.1891258.015625-.2857143 0-4.4182857-3.581714-8-8-8zm-1.2700893 2.7522321-.0491072.5044644c-1.0573828-.1004458-1.4939585.2756307-1.7812499.6763392-.2883771.4007086-.3504465.8258929-.3504464.8258929l-.9151786-.1160715c-.064254.1793163-.1252435.3621948-.15625.5513394l1.0714286.1361606s.06207-.4251842.3504464-.8258929c.2872914-.4007084.7238671-.7767849 1.7812499-.6763392l.1026789-1.0736608c-.017813-.00177-.035741-.0007091-.053571-.00223zm3.3415183 3.5714286c-.1501261.0356343-.233294.0956148-.3013397.2522321-.0603555.1297182-.075088.3698918-.0223212.6808037.0094857-.0326778.0103429-.0836218.0223212-.1093749.0680457-.1566173.1512136-.2165981.3013397-.2522323.299211-.0712915.971578.1141336 1.593749.9263393l.857143-.6584822c-.097078-.1266063-.203003-.2269031-.305803-.3370536l-.55134.4241072c-.622171-.8122057-1.294538-.9976307-1.593749-.9263393zm-3.5937504.828125c-.1091771 2.4548989-1.4650696 2.4561994-1.5758929.00447-.00491.096225-.022321.1813689-.022321.2812499 0 2.8762174 1.6205357 2.8762174 1.6205357 0 0-.1010903-.017282-.1882381-.022321-.2857143zm2.1629464.125c-.032624.3077997-.00994.6402449.080357.9955357l1.0491073-.2700893c-.0591196-.2288086-.0696933-.407254-.0602678-.5558035l-.9888393.2544642c-.0368879-.1451446-.0635087-.2860351-.0803572-.4241071zm-6.3549107 2.5089286v.5714287c0 .608548 1.9933714 1.607143 5.7142857 1.607143h.1116069c.070103.000343.1373072.0008.2098214 0 .00799.01806.012017.02697.017857.03794.00426.008.0096.01669.017857.03349l.714286 1.464284c.3358858.6808 1.0833367 1.0064 1.6785717.714286l.285714-.142857c.488406-.239702.706859-.800669.600447-1.375-.078206.347121-.279717.646162-.600447.803571l-.285714.142857c-.595234.292114-1.3426857-.033486-1.6785714-.714286l-.7142857-1.464285c-.00826-.0168-.013594-.02549-.017857-.03349-.00584-.01097-.00986-.01989-.017857-.03794-.072514.0008-.1397187.000343-.2098215 0h-.1116074c-3.7209143 0-5.7142857-.998594-5.7142857-1.6071427zm11.4285717 0c0 .5046167-.861086 1.0502857-2.464286 1.3571427l.241072.511161c1.432648-.314157 2.223214-.820852 2.223214-1.296875z" fill="#fbfbfb" opacity=".3"/><path d="m6.2879464 1.5959822c-1.1081486.0378057-1.8649886.5745264-2.2678571 1.1361607-.27888.3921142-.4645708.8443621-.5424107 1.3191964l.15625.020089c.0970503-.2708446.2183691-.5319365.3861607-.7678569.4028685-.5616343 1.1597085-1.0983549 2.2678571-1.1361607.1475591-.00434.2949106.000833.4419643.013393l.0535715-.5691966c-.1647086-.0163772-.3300844-.0204935-.4955358-.0156249zm-.5758928 2.5379464c-.4568686-.03456-.8325894.9434685-.8325894 2.1607143 0 .1107828.017699.1879297.022321.2901786.054944-1.0764701.3908876-1.9111886.8102679-1.8794644.4005713.030589.7124137.845616.765625 1.875.00448-.1007977.022321-.1766445.022321-.2857142 0-1.16864-.3494435-2.1272286-.7879455-2.1607143zm4.4486604.5178571c-.115394.0046629-.2291975.0199269-.3415175.0468754-.2282286.0555658-.4402158.1641951-.6205358.3147323-.18032.1505485-.3242257.3389314-.4196429.5535714-.1462976.3324227-.1896232.7185627-.1383928 1.1383928.0212286-.2002865.0617566-.3928279.1383928-.5669642.0954172-.21464.2393229-.403023.4196429-.5535715.18032-.1505371.3923072-.2591665.6205358-.3147322.11232-.0269486.2261235-.0422126.3415175-.0468754l.0022.00223c.693291-.0288 1.419712.3498372 2.053575 1.0290213l.305832-.2343763c-.695657-.9072572-1.553649-1.3995458-2.359375-1.3660715zm-.4129461 2.0334822c-.0164377.0566411-.0330046.1118457-.0379463.1897321l.0602674-.0156251c-.0179243-.069373-.0118208-.1122368-.0223211-.174107zm-9.73214287 1.0290178c-.00339474.0957601-.01562503.1891258-.01562503.2857143 0 4.418286 3.5817143 8 8 8 4.418286 0 8-3.581714 8-8 0-.096589-.01223-.1899542-.01562-.2857143-.151899 4.2846363-3.662683 7.7142853-7.98438 7.7142853-4.3216973 0-7.83248149-3.429649-7.98437497-7.7142853zm2.27008927.9285714v.5714286c1.1389257.7278857 4.5902857 1.0714283 5.7142857 1.0714283h.1785714c.5928343.0016 1.5635543.0043 2.5714286-.107143 1.117257-.123737 2.281086-.4109481 2.964286-.9642853v-.5714286c-.6832.5533372-1.847029.8405486-2.964286.9642858-1.0078743.1115314-1.9785943.1087428-2.5714286.1071428h-.1785714c-1.124 0-4.57536-.3435428-5.7142857-1.0714286zm9.2053577 2.4397329c-.08606.01887-.150225.04288-.241072.06027l.285714.60714c.05721.123711.07718.249418.100446.375.06693-.297054.04659-.62848-.100446-.946429z" fill="#160600" opacity=".2"/></g></svg>

<?xml version="1.0" encoding="UTF-8" standalone="no"?>
<svg
   xmlns:dc="http://purl.org/dc/elements/1.1/"
   xmlns:cc="http://creativecommons.org/ns#"
   xmlns:rdf="http://www.w3.org/1999/02/22-rdf-syntax-ns#"
   xmlns:svg="http://www.w3.org/2000/svg"
   xmlns="http://www.w3.org/2000/svg"
   xmlns:sodipodi="http://sodipodi.sourceforge.net/DTD/sodipodi-0.dtd"
   xmlns:inkscape="http://www.inkscape.org/namespaces/inkscape"
   height="16"
   width="16"
   version="1.1"
   id="svg4"
   sodipodi:docname="face-raspberry-wink.svg"
   inkscape:version="0.92.4 (5da689c313, 2019-01-14)">
  <metadata
     id="metadata10">
    <rdf:RDF>
      <cc:Work
         rdf:about="">
        <dc:format>image/svg+xml</dc:format>
        <dc:type
           rdf:resource="http://purl.org/dc/dcmitype/StillImage" />
      </cc:Work>
    </rdf:RDF>
  </metadata>
  <defs
     id="defs8" />
  <sodipodi:namedview
     pagecolor="#ffffff"
     bordercolor="#666666"
     borderopacity="1"
     objecttolerance="10"
     gridtolerance="10"
     guidetolerance="10"
     inkscape:pageopacity="0"
     inkscape:pageshadow="2"
     inkscape:window-width="1920"
     inkscape:window-height="1016"
     id="namedview6"
     showgrid="false"
     inkscape:zoom="59.928571"
     inkscape:cx="4.829559"
     inkscape:cy="8"
     inkscape:window-x="0"
     inkscape:window-y="27"
     inkscape:window-maximized="1"
     inkscape:current-layer="svg4" />
  <path
     d="M 8,0 C 3.5817143,0 0,3.5817143 0,8 c 0,4.418286 3.5817143,8 8,8 4.418286,0 8,-3.581714 8,-8 C 16,3.5817143 12.418286,0 8,0 Z M 2.2857143,9.2142857 C 3.42464,9.9421714 6.876,10.285714 8,10.285714 l 0.1792686,3.43e-4 h 2.28e-5 c 0.5928343,0.0016 1.5627772,0.0041 2.5706516,-0.107417 1.117257,-0.123737 2.281143,-0.4109486 2.964343,-0.9642857 v 0.5714286 c 0,0.5046171 -0.861029,1.0503311 -2.464229,1.3571881 l 0.285714,0.607086 c 0.318858,0.689486 0.0952,1.457829 -0.5,1.749943 l -0.285714,0.142857 C 10.154823,13.934971 9.4073143,13.609371 9.0714286,12.928571 L 8.3571429,11.464343 c -0.00826,-0.0168 -0.013429,-0.02651 -0.017691,-0.03451 -0.00584,-0.01097 -0.00997,-0.01886 -0.017954,-0.03692 -0.072514,8e-4 -0.1401142,5.72e-4 -0.2102171,2.29e-4 h -5.71e-5 -6.86e-5 l -0.1110857,-2.29e-4 c -3.7209143,0 -5.7142857,-0.998514 -5.7142857,-1.6070626 z M 4.0204686,3.3040686 C 4.4233371,2.7424343 5.1804457,2.2045714 6.2885943,2.1667657 c 0.1654514,-0.00487 0.3310286,9.029e-4 0.4957371,0.01728 L 6.6806971,3.2576343 C 5.6233143,3.1571886 5.1858514,3.5319657 4.89856,3.9326743 4.6101829,4.3333829 4.5496914,4.7578514 4.5496914,4.7578514 L 3.4783314,4.62176 C 3.5561714,4.1469257 3.7415886,3.6961829 4.0204686,3.3040686 Z m 0.8587085,3.5610057 c 0,-1.2172457 0.3769143,-2.1947086 0.8337829,-2.1601486 0.4385029,0.033486 0.78632,0.9915086 0.78632,2.1601486 0,2.8762171 -1.6201029,2.8762171 -1.6201029,0 z M 9.8193829,5.27088 C 9.9317029,5.243931 10.046389,5.228023 10.161783,5.22336 l 0.0011,0.00107 c 0.805688,-0.03347 1.663174,0.4590329 2.358831,1.36629 L 11.665257,7.2495657 C 11.043086,6.43736 10.370286,6.2515886 10.071074,6.32288 9.9209486,6.3585143 9.8377257,6.4200686 9.76968,6.5766857 c -0.072366,0.1555314 -0.108,0.4363429 0,0.8543314 L 8.7220457,7.70104 C 8.5729943,7.11456 8.5848571,6.5810057 8.7792686,6.1392571 8.8746857,5.9246171 9.01808,5.73472 9.1984,5.5841714 9.37872,5.4336343 9.5911543,5.3264457 9.8193829,5.27088 Z"
     id="path2"
     style="clip-rule:evenodd;fill:#fb7c38;fill-opacity:1;fill-rule:evenodd;stroke-width:1.14285719"
     inkscape:connector-curvature="0" />
  <g
     id="g831"
     transform="matrix(1.1428571,0,0,1.1428571,-27.549521,-4.009571)">
    <path
       inkscape:connector-curvature="0"
       style="opacity:1;fill:#f22c42;fill-opacity:1;stroke-width:1.23187971"
       d="M 8.2421875,10.96875 H 8.28125 c 0.012,0.027 0.01325,0.0285 0.03125,0.0625 l 0.625,1.28125 c 0.147,0.2975 0.3829375,0.517109 0.6484375,0.630859 0.2655,0.11375 0.5603125,0.121641 0.8203125,-0.0059 l 0.25,-0.125 c 0.2605,-0.128 0.440281,-0.359266 0.519531,-0.634766 0.07925,-0.2755 0.05747,-0.594484 -0.08203,-0.896484 L 10.982422,11.044922 10.808594,10.75 c 0.01493,0.0041 0.0282,0.01306 0.04297,0.01758 L 10.84375,10.75 c 0.0033,-6.37e-4 0.0045,-0.0013 0.0078,-0.002 A 2.9441256,2.4135832 0 0 0 9.8203125,10.587891 2.9441256,2.4135832 0 0 0 8.2421875,10.96875 Z"
       id="path855"
       transform="translate(23.118644,2.5084746)" />
  </g>
  <path
     style="opacity:0.3;fill:#fbfbfb;fill-opacity:1;stroke-width:1.14285719"
     d="M 8,0 C 3.5817143,0 0,3.5817143 0,8 0,8.0965885 0.01223029,8.1899542 0.01562503,8.2857143 0.16751851,4.0010774 3.6783027,0.57142857 8,0.57142857 c 4.321697,0 7.832481,3.42964883 7.984375,7.71428573 C 15.98777,8.1899542 16,8.0965885 16,8 16,3.5817143 12.418286,0 8,0 Z M 6.7299107,2.7522321 6.6808035,3.2566965 C 5.6234207,3.1562507 5.186845,3.5323272 4.8995536,3.9330357 4.6111765,4.3337443 4.5491071,4.7589286 4.5491072,4.7589286 L 3.6339286,4.6428571 c -0.064254,0.1793163 -0.1252435,0.3621948 -0.15625,0.5513394 l 1.0714286,0.1361606 c 0,0 0.06207,-0.4251842 0.3504464,-0.8258929 C 5.186845,4.1037558 5.6234207,3.7276793 6.6808035,3.828125 L 6.7834824,2.7544642 c -0.017813,-0.00177 -0.035741,-7.091e-4 -0.053571,-0.00223 z M 10.071429,6.3236607 C 9.9213029,6.359295 9.838135,6.4192755 9.7700893,6.5758928 9.7097338,6.705611 9.6950013,6.9457846 9.7477681,7.2566965 9.7572538,7.2240187 9.758111,7.1730747 9.7700893,7.1473216 9.838135,6.9907043 9.9213029,6.9307235 10.071429,6.8950893 10.37064,6.8237978 11.043007,7.0092229 11.665178,7.8214286 L 12.522321,7.1629464 C 12.425243,7.0363401 12.319318,6.9360433 12.216518,6.8258928 L 11.665178,7.25 C 11.043007,6.4377943 10.37064,6.2523693 10.071429,6.3236607 Z m -3.5937504,0.828125 c -0.1091771,2.4548989 -1.4650696,2.4561994 -1.5758929,0.00447 -0.00491,0.096225 -0.022321,0.1813689 -0.022321,0.2812499 0,2.8762174 1.6205357,2.8762174 1.6205357,0 0,-0.1010903 -0.017282,-0.1882381 -0.022321,-0.2857143 z m 2.1629464,0.125 C 8.608001,7.5845854 8.630685,7.9170306 8.720982,8.2723214 L 9.7700893,8.0022321 C 9.7109697,7.7734235 9.700396,7.5949781 9.7098215,7.4464286 L 8.7209822,7.7008928 C 8.6840943,7.5557482 8.6574735,7.4148577 8.640625,7.2767857 Z M 2.2857143,9.7857143 v 0.5714287 c 0,0.608548 1.9933714,1.607143 5.7142857,1.607143 h 0.1116069 c 0.070103,3.43e-4 0.1373072,8e-4 0.2098214,0 0.00799,0.01806 0.012017,0.02697 0.017857,0.03794 0.00426,0.008 0.0096,0.01669 0.017857,0.03349 L 9.0714283,13.5 C 9.4073141,14.1808 10.154765,14.5064 10.75,14.214286 l 0.285714,-0.142857 c 0.488406,-0.239702 0.706859,-0.800669 0.600447,-1.375 C 11.557955,13.04355 11.356444,13.342591 11.035714,13.5 L 10.75,13.642857 C 10.154766,13.934971 9.4073143,13.609371 9.0714286,12.928571 L 8.3571429,11.464286 c -0.00826,-0.0168 -0.013594,-0.02549 -0.017857,-0.03349 -0.00584,-0.01097 -0.00986,-0.01989 -0.017857,-0.03794 -0.072514,8e-4 -0.1397187,3.43e-4 -0.2098215,0 H 8 c -3.7209143,0 -5.7142857,-0.998594 -5.7142857,-1.6071427 z m 11.4285717,0 C 13.714286,10.290331 12.8532,10.836 11.25,11.142857 l 0.241072,0.511161 c 1.432648,-0.314157 2.223214,-0.820852 2.223214,-1.296875 z"
     id="path831"
     inkscape:connector-curvature="0" />
  <path
     style="opacity:0.2;fill:#160600;fill-opacity:1;stroke-width:1.14285719"
     d="M 6.2879464,1.5959822 C 5.1797978,1.6337879 4.4229578,2.1705086 4.0200893,2.7321429 3.7412093,3.1242571 3.5555185,3.576505 3.4776786,4.0513393 l 0.15625,0.020089 C 3.7309789,3.8005837 3.8522977,3.5394918 4.0200893,3.3035714 4.4229578,2.7419371 5.1797978,2.2052165 6.2879464,2.1674107 c 0.1475591,-0.00434 0.2949106,8.33e-4 0.4419643,0.013393 L 6.7834822,1.6116071 C 6.6187736,1.5952299 6.4533978,1.5911136 6.2879464,1.5959822 Z M 5.7120536,4.1339286 C 5.255185,4.0993686 4.8794642,5.0773971 4.8794642,6.2946429 c 0,0.1107828 0.017699,0.1879297 0.022321,0.2901786 0.054944,-1.0764701 0.3908876,-1.9111886 0.8102679,-1.8794644 0.4005713,0.030589 0.7124137,0.845616 0.765625,1.875 0.00448,-0.1007977 0.022321,-0.1766445 0.022321,-0.2857142 0,-1.16864 -0.3494435,-2.1272286 -0.7879455,-2.1607143 z M 10.160714,4.6517857 C 10.04532,4.6564486 9.9315165,4.6717126 9.8191965,4.6986611 9.5909679,4.7542269 9.3789807,4.8628562 9.1986607,5.0133934 9.0183407,5.1639419 8.874435,5.3523248 8.7790178,5.5669648 8.6327202,5.8993875 8.5893946,6.2855275 8.640625,6.7053576 8.6618536,6.5050711 8.7023816,6.3125297 8.7790178,6.1383934 8.874435,5.9237534 9.0183407,5.7353704 9.1986607,5.5848219 9.3789807,5.4342848 9.5909679,5.3256554 9.8191965,5.2700897 9.9315165,5.2431411 10.04532,5.2278771 10.160714,5.2232143 l 0.0022,0.00223 c 0.693291,-0.0288 1.419712,0.3498372 2.053575,1.0290213 L 12.522321,6.0200893 C 11.826664,5.1128321 10.968672,4.6205435 10.162946,4.6540178 Z M 9.7477679,6.6852679 C 9.7313302,6.741909 9.7147633,6.7971136 9.7098216,6.875 L 9.770089,6.8593749 C 9.7521647,6.7900019 9.7582682,6.7471381 9.7477679,6.6852679 Z M 0.01562503,7.7142857 C 0.01223029,7.8100458 0,7.9034115 0,8 c 0,4.418286 3.5817143,8 8,8 4.418286,0 8,-3.581714 8,-8 C 16,7.903411 15.98777,7.8100458 15.98438,7.7142857 15.832481,11.998922 12.321697,15.428571 8,15.428571 c -4.3216973,0 -7.83248149,-3.429649 -7.98437497,-7.7142853 z M 2.2857143,8.6428571 V 9.2142857 C 3.42464,9.9421714 6.876,10.285714 8,10.285714 h 0.1785714 c 0.5928343,0.0016 1.5635543,0.0043 2.5714286,-0.107143 1.117257,-0.123737 2.281086,-0.4109481 2.964286,-0.9642853 V 8.6428571 C 13.031086,9.1961943 11.867257,9.4834057 10.75,9.6071429 9.7421257,9.7186743 8.7714057,9.7158857 8.1785714,9.7142857 H 8 c -1.124,0 -4.57536,-0.3435428 -5.7142857,-1.0714286 z M 11.491072,11.08259 C 11.405012,11.10146 11.340847,11.12547 11.25,11.14286 L 11.535714,11.75 c 0.05721,0.123711 0.07718,0.249418 0.100446,0.375 0.06693,-0.297054 0.04659,-0.62848 -0.100446,-0.946429 z"
     id="path836"
     inkscape:connector-curvature="0" />
</svg>
